X: 10876
T: Dromey's Fancy
R: jig
M: 6/8
K: Edorian
|:E/F/|GEE BEE|GEE BAG|FDD ADD|dcB AGF|
GEE BEE|GEE B2 c|ded BAF|GEE E2:|
|:A|Bef gfe|fed BAG|FDD ADD|A2 G FED|
[1Bef gfe|fed BAF|GEE BAF|GEE E2:|
[2EDE G2 A|BAB def|edB BAF|GEE E2||

